X:1
T:Title
%%score { ( 1 3 ) | ( 2 4 ) }
L:1/8
M:4/4
K:G
V:1 treble nm="Grand Piano"
V:3 treble 
V:2 bass 
V:4 bass 
V:1
 z4 z2[Q:1/4=100] G>G | G2 D2 B,2 D2 | G6 B>B | B2 A2 G2 A2 | B6 [Fd]>[Fd] | d2 d2 d2 d2 | %6
 [Ge]2 [Ge]2 [EGc]2 [CEA]>[CEA] | [B,DG]2 [B,DG]2 [DGB]3 [CDA] |[M:3/4] [B,DG]6 |[M:1/4] z2 | %10
[M:4/4] A6 z2 | G6 z2 | c6 z2 | A6 z2 | d2- [Fd-]2 [Gd]2 BG | [Ge]6 z2 | %16
 [B,DG]2 [B,DG]2 [DFB]3 [CFA] |[M:3/4] [B,G]6 |] %18
V:2
 z4 z2 G,>G, | G,2 D,2 B,,2 D,2 | G,6[K:treble] [G,B,G]>[G,B,G] | %3
 [G,B,G]2[K:bass] [D,A,D]2 [B,,G,B,]2 [D,A,D]2 | [G,B,G]6 [D,A,]>[D,A,] | %5
 [G,B,G]2 [A,CF]2 [B,DG]2 [G,B,G]2 | [C,C]2 [C,C]2 C,2 C,>C, | D,2 D,2 D,3 D, |[M:3/4] G,,6 | %9
[M:1/4][K:treble] D2 |[M:4/4] F6[K:bass][K:treble] z2 | E6[K:bass][K:treble] z2 | %12
 A6[K:bass][K:treble] z2 | F6[K:bass] z2 | z4[K:treble] z2 .[DG]2 | [C,C]2 C,2 C,2 C,>C, | %16
 D,2 D,2 D,3 D, |[M:3/4] G,,6 |] %18
V:3
 x8 | x8 | x8 | x8 | x8 | x8 | x8 | x8 |[M:3/4] x6 |[M:1/4] x2 |[M:4/4] z2 D2 D2 BA | %11
 z2 B,2 B,2 AB | z2 E2 E2 e>c | z2 D>D D2 [Fd]2 | G2 z2 z4 | z2 C2 C2 [EGc]>[CEA] | x8 | %17
[M:3/4] x6 |] %18
V:4
 x8 | x8 | x6[K:treble] x2 | x2[K:bass] x6 | x8 | x8 | x8 | x8 |[M:3/4] x6 |[M:1/4][K:treble] x2 | %10
[M:4/4] z2[K:bass] D,2 D,2[K:treble] GF | z2[K:bass] E,2 E,2[K:treble] F^G | %12
 z2[K:bass] A,,2 A,,2[K:treble] c>A | z2[K:bass] D,>D, D,2 [D,C]2 | %14
 [G,B,]2[K:treble] [A,C]2 [B,D]2 G,-[G,C] | x8 | x8 |[M:3/4] x6 |] %18

